assets/icons/voicedark.svg

<svg width="24" height="24" viewBox="0 0 24 24" fill="none" xmlns="http://www.w3.org/2000/svg">
<path d="M6 9.86035V14.1504" stroke="#CBD2D9" stroke-width="1.5" stroke-linecap="round" stroke-linejoin="round"/>
<path d="M9 8.42969V15.5697" stroke="#CBD2D9" stroke-width="1.5" stroke-linecap="round" stroke-linejoin="round"/>
<path d="M12 7V17" stroke="#CBD2D9" stroke-width="1.5" stroke-linecap="round" stroke-linejoin="round"/>
<path d="M15 8.42969V15.5697" stroke="#CBD2D9" stroke-width="1.5" stroke-linecap="round" stroke-linejoin="round"/>
<path d="M18 9.86035V14.1504" stroke="#CBD2D9" stroke-width="1.5" stroke-linecap="round" stroke-linejoin="round"/>
<path d="M9 22H15C20 22 22 20 22 15V9C22 4 20 2 15 2H9C4 2 2 4 2 9V15C2 20 4 22 9 22Z" stroke="#CBD2D9" stroke-width="1.5" stroke-linecap="round" stroke-linejoin="round"/>
</svg>

<svg width="24" height="24" viewBox="0 0 24 24" fill="none" xmlns="http://www.w3.org/2000/svg"><path d="M6 9.86v4.29m3-5.72v7.14M12 7v10m3-8.57v7.14m3-5.71v4.29M9 22h6c5 0 7-2 7-7V9c0-5-2-7-7-7H9C4 2 2 4 2 9v6c0 5 2 7 7 7" stroke="#CBD2D9" stroke-width="1.5" stroke-linecap="round" stroke-linejoin="round"/></svg>
